X:1
T:Si de present (4v)
T:Si de present (4v)
T:Tielman Susato
C:Tielman Susato
%%score [ 1 [ 2 3 ] 4 ]
L:1/8
Q:1/4=76
M:2/2
K:C
V:1 treble nm="Superius" snm="S"
V:2 treble-8 nm="Tenor 1" snm="T 1"
V:3 treble-8 nm="Tenor 2" snm="T 2"
V:4 bass nm="Bass" snm="B"
V:1
 z8 | z8 | G2 GA B3 G | A2 B2 c2 BA | G2 c4 B2 | A2 G3 FED | C2 c2 B2 A2- | AG G4 F2 | G4 E2 F2- | %9
w: ||Si de pre- sent pei-|ne j'en- du- * *|re, di- re|puis par _ _ _|_ mons et par|_ _ _ _|vaulx, et _|
 F2 E2 D4 | C8- | C4 z4 | z4 G2 GA | BGAB c2 BA | G2 c2 B2 A2 | G3 F E2 D2 | C2 c2 B2 A2- | %17
w: _ _ par|vaulx,|_|que c'est d'ung|plai- sir qui peu du- * *|re dont j'ay souf-|fert tant de tra-|vaulx, dont j'ay souf-|
 AG G4 F2 | G4 E2 F2- | F2 E2 D4 | E8 | z2 C2 G2 E2 | F2 G2 A2 G2 | E3 F G4 | z2 G2 c2 B2 | %25
w: |fert tant de|_ _ tra-|vaulx,|en en- du-|rant maintz griefs et|as- * saulx,|en en- du|
 c2 d2 edcB | AGFE D2 d2- | dc c4 B2 | c8 | z2 e2 dBcc | BG A2 G2 c2 | BGAA GE F2 | E8 | %33
w: rant maintz griefs _ _ _|_ _ _ _ _ et|_ _ _ as-|saulx,|mais dieu fe- ra par|a- van- tu- re, mais|dieu fe- ra par a- van- tu-|re,|
 z2 C2 CDEF | G2 G2 G2 G2 | AB cA Bc d2- | dc c4 B2 | c8 | z2 e2 dBcc | BG A2 G2 c2 | BGAA GE F2 | %41
w: qu'al- le- * * *|gé se- ray de|mes _ _ _ _ _ _|_ _ _ _|maulx,|mais dieu fe- ra par|a- van- tu- re, mais|dieu fe- ra par a- van- tu-|
 E8 | z2 C2 CDEF | G2 G2 G2 G2 | AB cA Bc d2- | d2 c4 B2 | c8 |] %47
w: re,|qu'al- le- * * *|gé se- ray de|mes _ _ _ _ _ _|_ _ _|maulx.|
V:2
 z8 | z4 c2 cd | e3 c d2 e2 | f2 ed c2 g2- | gf e4 d2 | c2 e2 d2 e2 | A4 z2 f2- | fe d3 c A2 | %8
w: |Si de pre-|sent pei- ne j'en-|du- * * re, di-|* * re puis|par mons et par|vaulx, di-|* re puis par mons|
 B2 e4 d2- | dc c4 B2 | c6 BA | G4 z4 | c2 cd e3 c | de f2 e2 g2- | gf e2 d2 c2 | e3 f g2 g2 | %16
w: et _ _|_ _ _ par|vaulx, _ _|_|que c'est d'ung plai- sir|qui peu du- re dont|_ _ j'ay suof- fert|tant _ de tra-|
 c4 z2 f2- | fe d3 c A2 | B2 e4 d2- | dc c4 B2 | c4 z2 G2 | c2 A2 B2 c2 | d2 e2 d c2 B | c4 z2 c2 | %24
w: vaulx, dont|_ _ jay _ souf-|fert tant de|_ _ _ tra-|vaulx, en|en- du- rant maintz|griefs et as- * *|saulx, en|
 g2 e2 f2 g2 | a2 gf e2 f2 | f6 a2 | a2 f2 g2 d2 | g3 g aage | f2 e2 z gef | g e2 d BBce | %31
w: en- du- rant maintz|griefs et _ _ as-|saulx, et|as- * saulx, mais|dieu fe- ra par a- van-|tu- re, mais dieu fe-|ra par a- van- tu- re, mais|
 dBcd e c2 B | c4 z2 c2 | cdef g3 f | e4 d3 e | f3 e/f/ g2 a2- | a2 f2 g2 d2 | g3 g aage | %38
w: dieu fe- ra par a- van- tu-|re, qu'al-|le- * * * gé se-|ray de _|mes _ _ _ _|_ _ maulx, mais|dieu fe- ra par a- van-|
 f2 e2 z gef | geed B2 ce | dBcd e c2 B | c4 z2 c2 | cdef g3 f | e4 d3 e | f2 ef g2 a2- | %45
w: tu- re, mais dieu fe-|ra par a- van- tu- re, mais|dieu fe- ra par a- van- tu-|re, qu'al-|le- * * * gé se-|ray de _|mes _ _ _ _|
 a2 f2 g4 | e8 |] %47
w: _ _ _|maulx.|
V:3
 z4 G2 GA | B3 G A3 B | c2 BA G4 | F2 G2 A2 B2 | c2 GG GA BG | AB c2 G2 e2- | ed c2 d4 | c2 B2 A4 | %8
w: Si de pre-|sent pei- ne j'en-|du- * * *|* re, si de|pre- sent pei- ne j'en- du- *|* * re, di- re|_ puis par mons|et par vaulx,|
 G2 c4 A2- | A2 G2 A2 B2 | G4 z4 | z2 G2 GABG | AB c4 BA | G2 F2 c4 | z GGA BGAB | c2 BA G2 g2 | %16
w: par mons et|_ _ _ par|vaulx,|que c'est d'ung plai- sir|qui peu du- * *|* * re,|que c'est d'ung- plai- sir qui peu|du- * * re dont|
 f2 e2 d4 | c2 B2 A4 | G2 c4 A2- | A2 G2 A2 B2 | G8 | z8 | z4 z2 G2 | c2 A2 B2 c2 | e3 d c2 d2 | %25
w: j'ay souf- fert|tant de tra-|vaulx, tant de|_ _ _ tra-|vaulx,||en|en- du- rant maintz|griefs _ _ et|
 A3 B c4 | z2 c2 d2 f2 | e2 dc d4 | c2 G2 cdee | dB c2 d2 z2 | G2 cd e2 z G | GGcA Bc d2 | %32
w: as- * saulx|maintz griefs et|as- * * *|saulx, mais dieu fe- ra par|a- van- tu- re,|mai dieu fe- ra, mais|dieu fe- ra par a- van- tu-|
 G2 z c cdef | g2 e2 e3 d | c2 BA B4 | c2 c2 d2 f2- | feed/c/ d4 | c2 G2 cdee | dB c2 d2 z2 | %39
w: re, qu'al- le- * * *|gé se- ray de|mes _ _ _|maulx, de mes- *||maulx, mais dieu fe- ra par|a- van- tu- re,|
 G2 cd e2 z G | GGcA Bc d2 | G2 z c cdef | g2 e2 e3 d | c2 BA B4 | c2 c2 d2 f2- | feed/c/ d4 | %46
w: mais dieu fe- ra, mais|dieu fe- ra par a- van- tu-|re, qu'al- le- * * *|gé se- ray de|mes _ _ _|maulx, de mes _|_ _ _ _ _ _|
 c8 |] %47
w: maulx.|
V:4
 C,2 C,D, E,3 C, | D,2 E,2 F,3 E,/D,/ | C,4 z4 |"^#" z8 | C,2 C,D, E,C,D,E, | F,2 C,2 z2 C2- | %6
w: Si de pre- sent pei-|ne j'en- du- * *|re,||si de pre- sent pei- ne j'en-|du- re, di-|
 CB, A,2 G,2 F,2- | F,2 G,2 D,4 | G,2 C,4 D,2- | D,2 E,2 F,2 G,2 | C,4 z2 C,2 | C,D, E,3 C,D,E, | %12
w: * re puis par mons|_ et par|vaulx, et _|_ _ _ par|vaulx que|c'est d'ung plai- sir qui peu|
 F,2 E,D, C,4 |"^#" z4 C,2 C,D, | E,3 C, D,E, F,2 | C,2 C4 B,2 | A,2 A,2 D,3 E, | F,2 G,2 D,4 | %18
w: du- * * re,|que c'est d'ung|plai- sir qui peu du-|re dont j'ay|suf- fert tant _|_ de tra-|
 G,2 C,4 D,2- | D,2 E,2 F,2 G,2 | C,8 | z4 z2 C,2 | F,2 E,2 F,2 G,2 | A,4 G,2 C,2 | C3 B, A,2 G,2 | %25
w: vaulx, tant de|_ _ _ tra-|vaulx,|en|en- du- rant maintz|griefs et as-|saulx, _ _ _|
 F,2 E,D, C,2 F,2- | F,G, A,2 B,2 F,2 | A,4 G,4 | C,8 | z2 C,2 G,G,A,A, | G,G, F,2 E,2 z C, | %31
w: _ _ _ _ maintz|_ _ griefs et as-||saulx,|mais dieu fe- ra par|a- van- tu- re, mais|
 G,G,F,F, E,E, D,2 | C,8 | z4 z2 C,2 | C,D,E,F, G,2 G,2 | F,2 A,2 G,2 F,2 | A,4 G,4 | C,8 | %38
w: dieu fe- ra par a- van- tu-|re,|qu'al-|le- * * * gé se-|ray de mes _|_ _|maulx,|
 z2 C,2 G,G,A,A, | G,G, F,2 E,2 C,2 | G,G,F,F, E,E, D,2 | C,8- | C,4 z2 C,2 | C,D,E,F, G,2 G,2 | %44
w: mais dieu fe- ra par|a- van- tu- re, mais|dieu fe- re par a- van- tu-|re,|_ qu'al-|le- * * * gé se-|
 F,2 A,2 G,2 F,2 | A,4 G,4 | C,8 |] %47
w: ray de mes _|_ _|maulx.|

